svgs/sharp-light/oil-can-drip.svg

<svg xmlns="http://www.w3.org/2000/svg" viewBox="0 0 640 512"><!--! Font Awesome Pro 6.6.0 by @fontawesome - https://fontawesome.com License - https://fontawesome.com/license (Commercial License) Copyright 2024 Fonticons, Inc. --><path d="M352 96l-80 0 0 64 112 0 64 32 160-32 32 32L432 416l-48 0-256 0-32 0 0-32 0-32L0 304 0 192l0-32 32 0 64 0 32 0 112 0 0-64-80 0 0-32 192 0 0 32zM96 192l-64 0 0 92.2 64 32L96 192zm347.5 33.5l-9.8-4.9L376.4 192 128 192l0 140.2 0 35.8 0 16 256 0 34 0L592.9 195.6 454.3 223.4l-10.8 2.2zM608 400c0-1.3-.9-6.4-4.9-15.9c-2.9-6.9-6.8-14.3-11.1-21.8c-4.3 7.4-8.1 14.9-11.1 21.8c-4.1 9.5-4.9 14.6-4.9 15.9c0 8.8 7.2 16 16 16c7 0 10.7-2.1 12.3-3.5c1.2-1.1 3.7-4 3.7-12.5zm-64 0c0-18.2 15.4-46.6 28.8-67.8C583 316 592 304 592 304s9 12 19.2 28.2C624.6 353.4 640 381.8 640 400c0 32-21.5 48-48 48s-48-21.5-48-48z"/></svg>

<svg xmlns="http://www.w3.org/2000/svg" viewBox="0 0 640 512"><!--! Font Awesome Pro 6.5.2 by @fontawesome - https://fontawesome.com License - https://fontawesome.com/license (Commercial License) Copyright 2024 Fonticons, Inc. --><path d="M352 96H272v64H384l64 32 160-32 32 32L432 416H384 128 96V384 352L0 304V192 160H32 96h32H240V96H160V64H352V96zM96 192H32v92.2l64 32V192zm347.5 33.5l-9.8-4.9L376.4 192H128V332.2 368v16H384h34L592.9 195.6 454.3 223.4l-10.8 2.2zM608 400c0-1.3-.9-6.4-4.9-15.9c-2.9-6.9-6.8-14.3-11.1-21.8c-4.3 7.4-8.1 14.9-11.1 21.8c-4.1 9.5-4.9 14.6-4.9 15.9c0 8.8 7.2 16 16 16c7 0 10.7-2.1 12.3-3.5c1.2-1.1 3.7-4 3.7-12.5zm-64 0c0-18.2 15.4-46.6 28.8-67.8C583 316 592 304 592 304s9 12 19.2 28.2C624.6 353.4 640 381.8 640 400c0 32-21.5 48-48 48s-48-21.5-48-48z"/></svg>
